app/dist/common/images/vera-bradley.svg

<svg height="18" width="18" xmlns="http://www.w3.org/2000/svg"><path d="m0 0h18v18h-18z" fill="#b24794"/><g fill="#fff"><path d="m8.98 3 5.02 6-5.02 6-4.98-6zm0 1 4.2 5-4.2 5-4.16-5z" fill-rule="evenodd"/><path d="m8.99 5.03 3.31 3.97-3.32 3.97-3.29-3.97 3.31-3.97zm0 .47-2.9 3.5 2.9 3.5 2.93-3.5z"/><path d="m7.4 8.04h-.4v.3h.16l.67 1.86h.34l.83-2.16h-.33l-.67 1.7z"/><path d="m9.16 8.04h1.08c.19 0 .56.12.58.5 0 .09-.04.28-.25.42.14.06.43.27.43.61-.01.43-.37.64-.76.63h-.9v-1.85h-.18zm.5.3h.62c.09 0 .2.08.21.23 0 .15-.12.24-.21.24h-.28v.3h.34c.1 0 .32.13.32.4 0 .26-.21.38-.34.38h-.65v-1.54z" fill-rule="evenodd"/></g></svg>

<!-- by TradingView --><svg xmlns="http://www.w3.org/2000/svg" width="18" height="18"><path fill="#B24794" d="M0 0h18v18H0z"/><path fill-rule="evenodd" d="M8.98 3L14 9l-5.02 6L4 9l4.98-6zm0 1l4.2 5-4.2 5-4.16-5 4.16-5z" fill="#fff"/><path d="M8.99 5.03L12.3 9l-3.32 3.97L5.69 9 9 5.03zm0 .47L6.09 9l2.9 3.5L11.92 9 8.99 5.5z" fill="#fff"/><path d="M7.4 8.04H7v.3h.16l.67 1.86h.34L9 8.04h-.33L8 9.74l-.6-1.7z" fill="#fff"/><path fill-rule="evenodd" d="M9.16 8.04h1.08c.19 0 .56.12.58.5 0 .09-.04.28-.25.42.14.06.43.27.43.61-.01.43-.37.64-.76.63h-.9V8.35h-.18v-.31zm.5.3h.62c.09 0 .2.08.21.23 0 .15-.12.24-.21.24H10v.3h.34c.1 0 .32.13.32.4 0 .26-.21.38-.34.38h-.65V8.35z" fill="#fff"/></svg>
